X: 57
T: Fang yang
%%abc-version 2.0
%%abcx-abcm2ps-target-version 5.9.1 (29 Sep 2008)
%%abc-creator hum2abc beta
%%abcx-conversion-date 2013/10/02 07:52:29
%%abc-edited-by Helmut Schaffrath
%%humdrum-veritas 968512121
%%humdrum-veritas-data 2385876138
%%continueall 1
%%barnumbers 0
L: 1/8
M: 2/4
K: G
B B/ d/B2 [I:setbarnb 1]| 
B B/ E/D2 | 
E GG2 | 
B G F E | 
D4 | 
D E D E | 
d B B d | 
G G B, D | 
A G F E | 
D4 |]  



